Newaita-dark/apps/128/preferences-system-brightness-lock.svg

<?xml version="1.0" encoding="UTF-8"?>
<svg xmlns="http://www.w3.org/2000/svg" xmlns:xlink="http://www.w3.org/1999/xlink" width="128pt" height="128pt" viewBox="0 0 128 128" version="1.1">
<defs>
<radialGradient id="radial0" gradientUnits="userSpaceOnUse" cx="450.908936" cy="189.579361" fx="450.908936" fy="189.579361" r="21.166656" gradientTransform="matrix(0.000000696681,-0.31253,-0.562554,-0.000000406154,170.15435,254.381318)">
<stop offset="0" style="stop-color:rgb(0%,0%,0%);stop-opacity:0.313725;"/>
<stop offset="0.222222" style="stop-color:rgb(0%,0%,0%);stop-opacity:0.27451;"/>
<stop offset="1" style="stop-color:rgb(0%,0%,0%);stop-opacity:0;"/>
</radialGradient>
<radialGradient id="radial1" gradientUnits="userSpaceOnUse" cx="450.908936" cy="189.579361" fx="450.908936" fy="189.579361" r="21.166656" gradientTransform="matrix(-0.000000696681,0.31253,0.562554,0.000000406154,-43.142217,-30.109928)">
<stop offset="0" style="stop-color:rgb(0%,0%,0%);stop-opacity:0.313725;"/>
<stop offset="0.222222" style="stop-color:rgb(0%,0%,0%);stop-opacity:0.27451;"/>
<stop offset="1" style="stop-color:rgb(0%,0%,0%);stop-opacity:0;"/>
</radialGradient>
<radialGradient id="radial2" gradientUnits="userSpaceOnUse" cx="450.908936" cy="189.579361" fx="450.908936" fy="189.579361" r="21.166656" gradientTransform="matrix(-0.000000696681,-0.31253,0.562554,-0.000000406154,-43.142217,254.381318)">
<stop offset="0" style="stop-color:rgb(0%,0%,0%);stop-opacity:0.313725;"/>
<stop offset="0.222222" style="stop-color:rgb(0%,0%,0%);stop-opacity:0.27451;"/>
<stop offset="1" style="stop-color:rgb(0%,0%,0%);stop-opacity:0;"/>
</radialGradient>
<radialGradient id="radial3" gradientUnits="userSpaceOnUse" cx="450.908936" cy="189.579361" fx="450.908936" fy="189.579361" r="21.166656" gradientTransform="matrix(0.000000696681,0.31253,-0.562554,0.000000406154,170.154342,-30.10993)">
<stop offset="0" style="stop-color:rgb(0%,0%,0%);stop-opacity:0.313725;"/>
<stop offset="0.222222" style="stop-color:rgb(0%,0%,0%);stop-opacity:0.27451;"/>
<stop offset="1" style="stop-color:rgb(0%,0%,0%);stop-opacity:0;"/>
</radialGradient>
<linearGradient id="linear0" gradientUnits="userSpaceOnUse" x1="255.323059" y1="233.5" x2="255.323044" y2="254.666656" gradientTransform="matrix(0.00763431,0,0,0.250024,61.556849,53.755135)">
<stop offset="0" style="stop-color:rgb(0%,0%,0%);stop-opacity:0.27451;"/>
<stop offset="1" style="stop-color:rgb(0%,0%,0%);stop-opacity:0;"/>
</linearGradient>
<linearGradient id="linear1" gradientUnits="userSpaceOnUse" x1="960" y1="1695.118164" x2="960" y2="175.118134" gradientTransform="matrix(0.0661521,0,0,0.0661521,0,0)">
<stop offset="0" style="stop-color:rgb(47.058824%,56.470588%,61.176471%);stop-opacity:1;"/>
<stop offset="1" style="stop-color:rgb(56.470588%,64.313725%,68.235294%);stop-opacity:1;"/>
</linearGradient>
<linearGradient id="linear2" gradientUnits="userSpaceOnUse" x1="1280" y1="1695.118164" x2="1280" y2="175.118134" >
<stop offset="0" style="stop-color:rgb(87.843137%,87.843137%,87.843137%);stop-opacity:1;"/>
<stop offset="1" style="stop-color:rgb(93.333333%,93.333333%,93.333333%);stop-opacity:1;"/>
</linearGradient>
<linearGradient id="linear3" gradientUnits="userSpaceOnUse" x1="296.333344" y1="-94.583336" x2="296.333344" y2="159.416672" gradientTransform="matrix(-1,0,0,1,508,0)">
<stop offset="0" style="stop-color:rgb(87.843137%,87.843137%,87.843137%);stop-opacity:1;"/>
<stop offset="1" style="stop-color:rgb(93.333333%,93.333333%,93.333333%);stop-opacity:1;"/>
</linearGradient>
<linearGradient id="linear4" gradientUnits="userSpaceOnUse" x1="296.333344" y1="-94.583336" x2="296.333344" y2="159.416672" >
<stop offset="0" style="stop-color:rgb(47.058824%,56.470588%,61.176471%);stop-opacity:1;"/>
<stop offset="1" style="stop-color:rgb(56.470588%,64.313725%,68.235294%);stop-opacity:1;"/>
</linearGradient>
</defs>
<g id="surface1">
<path style=" stroke:none;fill-rule:nonzero;fill:url(#radial0);" d="M 64.828125 112.136719 L 75.414062 112.136719 L 75.414062 106.84375 L 64.828125 106.84375 Z M 64.828125 112.136719 "/>
<path style=" stroke:none;fill-rule:nonzero;fill:url(#radial1);" d="M 62.183594 112.136719 L 51.597656 112.136719 L 51.597656 117.429688 L 62.183594 117.429688 Z M 62.183594 112.136719 "/>
<path style=" stroke:none;fill-rule:nonzero;fill:url(#radial2);" d="M 62.183594 112.136719 L 51.597656 112.136719 L 51.597656 106.84375 L 62.183594 106.84375 Z M 62.183594 112.136719 "/>
<path style=" stroke:none;fill-rule:nonzero;fill:url(#radial3);" d="M 64.828125 112.136719 L 75.414062 112.136719 L 75.414062 117.429688 L 64.828125 117.429688 Z M 64.828125 112.136719 "/>
<path style=" stroke:none;fill-rule:nonzero;fill:url(#linear0);" d="M 62.183594 110.8125 L 64.828125 110.8125 L 64.828125 117.429688 L 62.183594 117.429688 Z M 62.183594 110.8125 "/>
<path style=" stroke:none;fill-rule:nonzero;fill:url(#linear1);" d="M 63.507812 11.65625 C 62.152344 11.65625 60.800781 12.175781 59.765625 13.210938 L 48.160156 24.816406 L 31.753906 24.816406 C 28.820312 24.816406 26.460938 27.175781 26.460938 30.105469 L 26.460938 46.515625 L 14.859375 58.117188 C 12.785156 60.191406 12.785156 63.527344 14.859375 65.601562 L 26.460938 77.203125 L 26.460938 93.613281 C 26.460938 96.546875 28.820312 98.90625 31.753906 98.90625 L 48.160156 98.90625 L 59.765625 110.507812 C 61.835938 112.582031 65.175781 112.582031 67.25 110.507812 L 78.851562 98.90625 L 95.257812 98.90625 C 98.191406 98.90625 100.550781 96.546875 100.550781 93.613281 L 100.550781 77.203125 L 112.152344 65.601562 C 114.226562 63.527344 114.226562 60.191406 112.152344 58.117188 L 100.550781 46.515625 L 100.550781 30.105469 C 100.550781 27.175781 98.191406 24.816406 95.257812 24.816406 L 78.851562 24.816406 L 67.25 13.210938 C 66.210938 12.175781 64.859375 11.65625 63.507812 11.65625 Z M 63.507812 11.65625 "/>
<path style="fill-rule:nonzero;fill:url(#linear2);stroke-width:9.626457;stroke-linecap:round;stroke-linejoin:round;stroke:rgb(12.941177%,12.941177%,12.941177%);stroke-opacity:1;stroke-miterlimit:4;" d="M 960.026483 176.203655 L 960.026483 1694.011547 C 980.457604 1694.011547 1000.888724 1686.157966 1016.595887 1670.509853 L 1191.972849 1495.132891 L 1439.980675 1495.132891 C 1484.326836 1495.132891 1519.992723 1459.467004 1519.992723 1415.120843 L 1519.992723 1167.053968 L 1695.369685 991.677005 C 1726.724961 960.32173 1726.724961 909.893472 1695.369685 878.538197 L 1519.992723 703.161235 L 1519.992723 455.09436 C 1519.992723 410.807248 1484.326836 375.141361 1439.980675 375.141361 L 1191.972849 375.141361 L 1016.595887 199.705349 C 1000.888724 184.057236 980.457604 176.203655 960.026483 176.203655 Z M 960.026483 176.203655 " transform="matrix(0.0661521,0,0,0.0661521,0,0)"/>
<path style=" stroke:none;fill-rule:nonzero;fill:rgb(100%,100%,100%);fill-opacity:0.392157;" d="M 63.507812 11.65625 C 62.152344 11.65625 60.800781 12.175781 59.765625 13.210938 L 48.160156 24.816406 L 31.753906 24.816406 C 28.820312 24.816406 26.460938 27.175781 26.460938 30.105469 L 26.460938 31.355469 C 26.460938 28.425781 28.820312 26.066406 31.753906 26.066406 L 48.160156 26.066406 L 59.765625 14.460938 C 60.800781 13.425781 62.152344 12.90625 63.507812 12.90625 C 64.859375 12.90625 66.210938 13.425781 67.25 14.460938 L 78.851562 26.066406 L 95.257812 26.066406 C 98.191406 26.066406 100.550781 28.425781 100.550781 31.355469 L 100.550781 30.105469 C 100.550781 27.175781 98.191406 24.816406 95.257812 24.816406 L 78.851562 24.816406 L 67.25 13.210938 C 66.210938 12.175781 64.859375 11.65625 63.507812 11.65625 Z M 26.460938 46.515625 L 14.859375 58.117188 C 13.660156 59.3125 13.15625 60.933594 13.34375 62.484375 C 13.476562 61.347656 13.980469 60.246094 14.859375 59.367188 L 26.460938 47.765625 Z M 100.550781 46.515625 L 100.550781 47.765625 L 112.152344 59.367188 C 113.03125 60.246094 113.535156 61.347656 113.671875 62.484375 C 113.855469 60.933594 113.351562 59.3125 112.152344 58.117188 Z M 100.550781 46.515625 "/>
<path style=" stroke:none;fill-rule:nonzero;fill:rgb(0%,0%,0%);fill-opacity:0.235294;" d="M 63.507812 112.0625 C 62.152344 112.0625 60.800781 111.542969 59.765625 110.507812 L 48.160156 98.90625 L 31.753906 98.90625 C 28.820312 98.90625 26.460938 96.546875 26.460938 93.613281 L 26.460938 92.363281 C 26.460938 95.296875 28.820312 97.65625 31.753906 97.65625 L 48.160156 97.65625 L 59.765625 109.257812 C 60.800781 110.292969 62.152344 110.8125 63.507812 110.8125 C 64.859375 110.8125 66.210938 110.292969 67.25 109.257812 L 78.851562 97.65625 L 95.257812 97.65625 C 98.191406 97.65625 100.550781 95.296875 100.550781 92.363281 L 100.550781 93.613281 C 100.550781 96.546875 98.191406 98.90625 95.257812 98.90625 L 78.851562 98.90625 L 67.25 110.507812 C 66.210938 111.542969 64.859375 112.0625 63.507812 112.0625 Z M 26.460938 77.203125 L 14.859375 65.601562 C 13.660156 64.40625 13.15625 62.789062 13.34375 61.234375 C 13.476562 62.371094 13.980469 63.476562 14.859375 64.351562 L 26.460938 75.953125 Z M 100.550781 77.203125 L 100.550781 75.953125 L 112.152344 64.351562 C 113.03125 63.476562 113.535156 62.371094 113.671875 61.234375 C 113.855469 62.789062 113.351562 64.40625 112.152344 65.601562 Z M 100.550781 77.203125 "/>
<path style=" stroke:none;fill-rule:nonzero;fill:rgb(12.941177%,12.941177%,12.941177%);fill-opacity:0.964706;" d="M 63.507812 11.28125 C 62.058594 11.28125 60.605469 11.839844 59.5 12.945312 L 48.007812 24.441406 L 31.753906 24.441406 C 28.621094 24.441406 26.085938 26.972656 26.085938 30.105469 L 26.085938 46.359375 L 14.59375 57.851562 C 12.378906 60.066406 12.378906 63.652344 14.59375 65.867188 L 26.085938 77.359375 L 26.085938 93.613281 C 26.085938 96.746094 28.621094 99.28125 31.753906 99.28125 L 48.007812 99.28125 L 59.5 110.773438 C 61.714844 112.988281 65.296875 112.988281 67.511719 110.773438 L 79.007812 99.28125 L 95.257812 99.28125 C 98.390625 99.28125 100.925781 96.746094 100.925781 93.613281 L 100.925781 77.359375 L 112.417969 65.867188 C 114.632812 63.652344 114.632812 60.066406 112.417969 57.851562 L 100.925781 46.359375 L 100.925781 30.105469 C 100.925781 26.972656 98.390625 24.441406 95.257812 24.441406 L 79.007812 24.441406 L 67.511719 12.945312 C 66.40625 11.839844 64.953125 11.28125 63.507812 11.28125 Z M 63.507812 12.03125 C 64.761719 12.03125 66.019531 12.511719 66.984375 13.476562 L 78.585938 25.078125 C 78.65625 25.148438 78.75 25.191406 78.851562 25.191406 L 95.257812 25.191406 C 97.988281 25.191406 100.175781 27.375 100.175781 30.105469 L 100.175781 46.515625 C 100.175781 46.613281 100.214844 46.710938 100.285156 46.78125 L 111.886719 58.382812 C 113.820312 60.3125 113.820312 63.40625 111.886719 65.335938 L 100.285156 76.941406 C 100.214844 77.011719 100.175781 77.105469 100.175781 77.203125 L 100.175781 93.613281 C 100.175781 96.34375 97.988281 98.53125 95.257812 98.53125 L 78.851562 98.53125 C 78.75 98.53125 78.65625 98.570312 78.585938 98.640625 L 66.984375 110.242188 C 65.050781 112.171875 61.960938 112.171875 60.027344 110.242188 L 48.425781 98.640625 C 48.355469 98.570312 48.261719 98.53125 48.160156 98.53125 L 31.753906 98.53125 C 29.023438 98.53125 26.835938 96.34375 26.835938 93.613281 L 26.835938 77.203125 C 26.835938 77.105469 26.796875 77.011719 26.726562 76.941406 L 15.125 65.335938 C 13.191406 63.40625 13.191406 60.3125 15.125 58.382812 L 26.726562 46.78125 C 26.796875 46.710938 26.835938 46.613281 26.835938 46.515625 L 26.835938 30.105469 C 26.835938 27.375 29.023438 25.191406 31.753906 25.191406 L 48.160156 25.191406 C 48.261719 25.191406 48.355469 25.152344 48.425781 25.078125 L 60.027344 13.476562 C 60.996094 12.511719 62.25 12.03125 63.507812 12.03125 Z M 63.507812 12.03125 "/>
<path style="fill-rule:nonzero;fill:url(#linear3);stroke-width:3;stroke-linecap:round;stroke-linejoin:round;stroke:rgb(12.941177%,12.941177%,12.941177%);stroke-opacity:1;stroke-miterlimit:4;" d="M 254.006994 -94.589624 C 183.638713 -94.589624 127.003497 -37.938784 127.003497 32.413873 C 127.003497 102.782153 183.638713 159.41737 254.006994 159.41737 Z M 254.006994 -94.589624 " transform="matrix(0.250024,0,0,0.250024,0,53.755133)"/>
<path style="fill-rule:nonzero;fill:url(#linear4);stroke-width:3;stroke-linecap:round;stroke-linejoin:round;stroke:rgb(12.941177%,12.941177%,12.941177%);stroke-opacity:1;stroke-miterlimit:4;" d="M 254.006994 -94.589624 C 324.35965 -94.589624 380.994867 -37.938784 380.994867 32.413873 C 380.994867 102.782153 324.35965 159.41737 254.006994 159.41737 Z M 254.006994 -94.589624 " transform="matrix(0.250024,0,0,0.250024,0,53.755133)"/>
</g>
</svg>

<svg xmlns="http://www.w3.org/2000/svg" width="128pt" height="128pt" viewBox="0 0 128 128"><defs><radialGradient id="a" gradientUnits="userSpaceOnUse" cx="450.909" cy="189.579" fx="450.909" fy="189.579" r="21.167" gradientTransform="matrix(0 -.31253 -.56255 0 170.154 254.381)"><stop offset="0" stop-opacity=".314"/><stop offset=".222" stop-opacity=".275"/><stop offset="1" stop-opacity="0"/></radialGradient><radialGradient id="b" gradientUnits="userSpaceOnUse" cx="450.909" cy="189.579" fx="450.909" fy="189.579" r="21.167" gradientTransform="matrix(0 .31253 .56255 0 -43.142 -30.11)"><stop offset="0" stop-opacity=".314"/><stop offset=".222" stop-opacity=".275"/><stop offset="1" stop-opacity="0"/></radialGradient><radialGradient id="c" gradientUnits="userSpaceOnUse" cx="450.909" cy="189.579" fx="450.909" fy="189.579" r="21.167" gradientTransform="matrix(0 -.31253 .56255 0 -43.142 254.381)"><stop offset="0" stop-opacity=".314"/><stop offset=".222" stop-opacity=".275"/><stop offset="1" stop-opacity="0"/></radialGradient><radialGradient id="d" gradientUnits="userSpaceOnUse" cx="450.909" cy="189.579" fx="450.909" fy="189.579" r="21.167" gradientTransform="matrix(0 .31253 -.56255 0 170.154 -30.11)"><stop offset="0" stop-opacity=".314"/><stop offset=".222" stop-opacity=".275"/><stop offset="1" stop-opacity="0"/></radialGradient><linearGradient id="e" gradientUnits="userSpaceOnUse" x1="255.323" y1="233.5" x2="255.323" y2="254.667" gradientTransform="matrix(.00763 0 0 .25002 61.557 53.755)"><stop offset="0" stop-opacity=".275"/><stop offset="1" stop-opacity="0"/></linearGradient><linearGradient id="f" gradientUnits="userSpaceOnUse" x1="960" y1="1695.118" x2="960" y2="175.118" gradientTransform="scale(.06615)"><stop offset="0" stop-color="#78909c"/><stop offset="1" stop-color="#90a4ae"/></linearGradient><linearGradient id="g" gradientUnits="userSpaceOnUse" x1="1280" y1="1695.118" x2="1280" y2="175.118"><stop offset="0" stop-color="#e0e0e0"/><stop offset="1" stop-color="#eee"/></linearGradient><linearGradient id="h" gradientUnits="userSpaceOnUse" x1="296.333" y1="-94.583" x2="296.333" y2="159.417" gradientTransform="matrix(-1 0 0 1 508 0)"><stop offset="0" stop-color="#e0e0e0"/><stop offset="1" stop-color="#eee"/></linearGradient><linearGradient id="i" gradientUnits="userSpaceOnUse" x1="296.333" y1="-94.583" x2="296.333" y2="159.417"><stop offset="0" stop-color="#78909c"/><stop offset="1" stop-color="#90a4ae"/></linearGradient></defs><path d="M64.828 112.137h10.586v-5.293H64.828zm0 0" fill="url(#a)"/><path d="M62.184 112.137H51.598v5.293h10.586zm0 0" fill="url(#b)"/><path d="M62.184 112.137H51.598v-5.293h10.586zm0 0" fill="url(#c)"/><path d="M64.828 112.137h10.586v5.293H64.828zm0 0" fill="url(#d)"/><path d="M62.184 110.813h2.644v6.617h-2.644zm0 0" fill="url(#e)"/><path d="M63.508 11.656c-1.356 0-2.707.52-3.742 1.555L48.16 24.816H31.754a5.279 5.279 0 0 0-5.293 5.29v16.41L14.859 58.117a5.279 5.279 0 0 0 0 7.485l11.602 11.601v16.41a5.28 5.28 0 0 0 5.293 5.293H48.16l11.606 11.602a5.279 5.279 0 0 0 7.484 0l11.602-11.602h16.406a5.28 5.28 0 0 0 5.293-5.293v-16.41l11.601-11.601a5.279 5.279 0 0 0 0-7.485l-11.601-11.601v-16.41c0-2.93-2.36-5.29-5.293-5.29H78.852L67.25 13.211a5.288 5.288 0 0 0-3.742-1.555zm0 0" fill="url(#f)"/><path d="M960.026 176.204v1517.808c20.432 0 40.863-7.854 56.57-23.502l175.377-175.377h248.008c44.346 0 80.012-35.666 80.012-80.012v-248.067l175.377-175.377c31.355-31.355 31.355-81.784 0-113.139l-175.377-175.377V455.094c0-44.287-35.666-79.953-80.012-79.953h-248.008l-175.377-175.436c-15.707-15.648-36.138-23.501-56.57-23.501zm0 0" transform="scale(.06615)" fill="url(#g)" stroke-width="9.626" stroke-linecap="round" stroke-linejoin="round" stroke="#212121"/><path d="M63.508 11.656c-1.356 0-2.707.52-3.742 1.555L48.16 24.816H31.754a5.279 5.279 0 0 0-5.293 5.29v1.25c0-2.93 2.36-5.29 5.293-5.29H48.16l11.606-11.605a5.274 5.274 0 0 1 3.742-1.555c1.351 0 2.703.52 3.742 1.555l11.602 11.605h16.406a5.279 5.279 0 0 1 5.293 5.29v-1.25c0-2.93-2.36-5.29-5.293-5.29H78.852L67.25 13.211a5.288 5.288 0 0 0-3.742-1.555zM26.46 46.516L14.859 58.117a5.259 5.259 0 0 0-1.515 4.367 5.255 5.255 0 0 1 1.515-3.117l11.602-11.601zm74.09 0v1.25l11.601 11.601a5.283 5.283 0 0 1 1.52 3.117 5.274 5.274 0 0 0-1.52-4.367zm0 0" fill="#fff" fill-opacity=".392"/><path d="M63.508 112.063a5.274 5.274 0 0 1-3.742-1.555L48.16 98.906H31.754a5.28 5.28 0 0 1-5.293-5.293v-1.25a5.28 5.28 0 0 0 5.293 5.293H48.16l11.606 11.602a5.274 5.274 0 0 0 3.742 1.555c1.351 0 2.703-.52 3.742-1.555l11.602-11.602h16.406a5.28 5.28 0 0 0 5.293-5.293v1.25a5.28 5.28 0 0 1-5.293 5.293H78.852L67.25 110.508a5.288 5.288 0 0 1-3.742 1.555zM26.46 77.203L14.859 65.602a5.255 5.255 0 0 1-1.515-4.368 5.244 5.244 0 0 0 1.515 3.118l11.602 11.601zm74.09 0v-1.25l11.601-11.601a5.272 5.272 0 0 0 1.52-3.118 5.27 5.27 0 0 1-1.52 4.368zm0 0" fill-opacity=".235"/><path d="M63.508 11.281a5.66 5.66 0 0 0-4.008 1.664L48.008 24.441H31.754a5.661 5.661 0 0 0-5.668 5.664V46.36L14.594 57.852a5.665 5.665 0 0 0 0 8.015L26.086 77.36v16.254a5.665 5.665 0 0 0 5.668 5.668h16.254L59.5 110.773a5.66 5.66 0 0 0 8.012 0l11.496-11.492h16.25a5.665 5.665 0 0 0 5.668-5.668V77.36l11.492-11.492a5.665 5.665 0 0 0 0-8.015l-11.492-11.493V30.105a5.661 5.661 0 0 0-5.668-5.664h-16.25L67.512 12.945a5.658 5.658 0 0 0-4.004-1.664zm0 .75c1.254 0 2.512.48 3.476 1.446l11.602 11.601c.07.07.164.113.266.113h16.406a4.896 4.896 0 0 1 4.918 4.914v16.41c0 .098.039.196.11.266l11.6 11.602a4.892 4.892 0 0 1 0 6.953l-11.6 11.605a.37.37 0 0 0-.11.262v16.41a4.9 4.9 0 0 1-4.918 4.918H78.852a.372.372 0 0 0-.266.11l-11.602 11.601a4.904 4.904 0 0 1-6.957 0L48.426 98.641a.372.372 0 0 0-.266-.11H31.754a4.9 4.9 0 0 1-4.918-4.918v-16.41a.37.37 0 0 0-.11-.262L15.126 65.336a4.892 4.892 0 0 1 0-6.953L26.727 46.78c.07-.07.109-.168.109-.265v-16.41a4.896 4.896 0 0 1 4.918-4.915H48.16a.36.36 0 0 0 .266-.113l11.601-11.601a4.911 4.911 0 0 1 3.48-1.446zm0 0" fill="#212121" fill-opacity=".965"/><path d="M254.007-94.59c-70.368 0-127.004 56.651-127.004 127.004 0 70.368 56.636 127.003 127.004 127.003zm0 0" transform="matrix(.25002 0 0 .25002 0 53.755)" fill="url(#h)" stroke-width="3" stroke-linecap="round" stroke-linejoin="round" stroke="#212121"/><path d="M254.007-94.59c70.353 0 126.988 56.651 126.988 127.004 0 70.368-56.635 127.003-126.988 127.003zm0 0" transform="matrix(.25002 0 0 .25002 0 53.755)" fill="url(#i)" stroke-width="3" stroke-linecap="round" stroke-linejoin="round" stroke="#212121"/></svg>
